assets/images/controls/moveRight.svg

<?xml version="1.0" encoding="UTF-8" standalone="no"?>
<svg
   xmlns:svg="http://www.w3.org/2000/svg"
   xmlns="http://www.w3.org/2000/svg"
   xmlns:sodipodi="http://sodipodi.sourceforge.net/DTD/sodipodi-0.dtd"
   xmlns:inkscape="http://www.inkscape.org/namespaces/inkscape"
   id="svg2"
   version="1.1"
   inkscape:version="0.91 r13725"
   sodipodi:docname="right.svg"
   height="80"
   width="80">
  <sodipodi:namedview
     pagecolor="#000000"
     bordercolor="#666666"
     borderopacity="1"
     objecttolerance="10"
     gridtolerance="10"
     guidetolerance="10"
     inkscape:pageopacity="0"
     inkscape:pageshadow="2"
     inkscape:window-width="1920"
     inkscape:window-height="1032"
     id="namedview14"
     showgrid="false"
     inkscape:zoom="1.668772"
     inkscape:cx="-24.085482"
     inkscape:cy="-73.598027"
     inkscape:window-x="0"
     inkscape:window-y="25"
     inkscape:window-maximized="1"
     inkscape:current-layer="svg2" />
  <defs
     id="defs4" />
  <path
     style="fill:#ffffff;stroke:none"
     inkscape:connector-curvature="0"
     id="path8"
     d="m 13.8,13.85 0,-0.05 C 6.6,21.06667 3,29.8 3,40 3,50.2 6.6,58.91667 13.8,66.15 21,73.38333 29.73333,77 40,77 50.2,77 58.91667,73.38333 66.15,66.15 73.38333,58.91667 77,50.2 77,40 77,29.8 73.38333,21.08333 66.15,13.85 58.91667,6.61667 50.2,3 40,3 29.73333,3 21,6.61667 13.8,13.85 m 28.85,10.3 0,-0.05 14.15,13.8 0.2,0.15 c 0.66667,0.76667 1,1.6 1,2.5 0,1 -0.4,1.86667 -1.2,2.6 l 0.05,0 -14.1,13.7 -0.15,0.2 -0.05,0.05 c -0.8,0.7 -1.63333,1.01667 -2.5,0.95 l -0.05,0 -1.4,-0.3 0.05,0 c -1.6,-0.56667 -2.48333,-1.8 -2.65,-3.7 l 0,-5.1 -12,0 c -0.5,0 -0.95,-0.18333 -1.35,-0.55 C 22.21667,48.06667 22,47.6 22,47 l 0,-12.9 c 0,-0.53333 0.2,-1 0.6,-1.4 0.4,-0.4 0.86667,-0.6 1.4,-0.6 l 12,-0.05 0,-5 c 0.1,-1.8 0.95,-3.05 2.55,-3.75 l 0.3,-0.05 c 1.46667,-0.5 2.73333,-0.2 3.8,0.9 M 80,40 C 80,51.03333 76.08333,60.45 68.25,68.25 60.45,76.08333 51.03333,80 40,80 28.9,80 19.45,76.08333 11.65,68.25 3.88333,60.45 0,51.03333 0,40 0,28.96667 3.88333,19.53333 11.65,11.7 19.45,3.9 28.9,0 40,0 51.03333,0 60.45,3.9 68.25,11.7 76.08333,19.53333 80,28.96667 80,40"
     sodipodi:nodetypes="ccssssssscccccscccccccccccscsssccccccccssscssc" />
</svg>

<?xml version="1.0" encoding="UTF-8" standalone="no"?>
<svg id="svg2" width="80" xmlns="http://www.w3.org/2000/svg" version="1.1" height="80">
 <path id="path8" fill="#fff" d="m13.8 13.85v-0.05c-7.2 7.267-10.8 16-10.8 26.2s3.6 18.917 10.8 26.15 15.933 10.85 26.2 10.85c10.2 0 18.917-3.617 26.15-10.85s10.85-15.95 10.85-26.15-3.617-18.917-10.85-26.15c-7.233-7.2333-15.95-10.85-26.15-10.85-10.267 0-19 3.6167-26.2 10.85m28.85 10.3v-0.05l14.15 13.8 0.2 0.15c0.66667 0.76667 1 1.6 1 2.5 0 1-0.4 1.8667-1.2 2.6h0.05l-14.1 13.7-0.15 0.2-0.05 0.05c-0.8 0.7-1.6333 1.0167-2.5 0.95h-0.05l-1.4-0.3h0.05c-1.6-0.56667-2.4833-1.8-2.65-3.7v-5.1h-12c-0.5 0-0.95-0.18333-1.35-0.55-0.433-0.333-0.65-0.8-0.65-1.4v-12.9c0-0.53333 0.2-1 0.6-1.4s0.86667-0.6 1.4-0.6l12-0.05v-5c0.1-1.8 0.95-3.05 2.55-3.75l0.3-0.05c1.4667-0.5 2.7333-0.2 3.8 0.9m37.35 15.85c0 11.033-3.917 20.45-11.75 28.25-7.8 7.833-17.217 11.75-28.25 11.75-11.1 0-20.55-3.917-28.35-11.75-7.7667-7.8-11.65-17.217-11.65-28.25s3.8833-20.467 11.65-28.3c7.8-7.8 17.25-11.7 28.35-11.7 11.033 0 20.45 3.9 28.25 11.7 7.833 7.833 11.75 17.267 11.75 28.3"/>
</svg>
